X: 30542
T: On The Offbeat
R: jig
M: 6/8
K: Amixolydian
eAA cded|fgg dBge|fdA dBfd|ecA dBgf|
e2A cded|fgg dBge|fdA dBgd|ecA GABG:|
|:d2 dcB GF|EF GBG cd|e2 dcB GF|EF GBG A2:|
[K:Ador] A,2 A2 BAG|A2 E2 GFD|A,2 B,2 CEG|A2 F2 D2 C|
A,2 A2 BAG|A2 E2 GFD|A,2 B,2 CEG|1 B,DG G,2 ^G,2:|2 Acd ge a2||

